X:1
T:Jordan, LMD
T:Jordan, LMD
T:Joseph Barnby, 1872
T:Public Domain Courtesy of the Cyber Hymnal™
C:Joseph Barnby, 1872
Z:Public Domain
Z:Courtesy of the Cyber Hymnal™
%%score ( 1 2 ) ( 3 4 )
L:1/8
Q:1/4=110
M:4/4
K:Eb
V:1 treble 
V:2 treble 
V:3 bass 
V:4 bass 
V:1
 [EG]2 | [EB]2 [Ec]2 [EB]2 (GF) | E2 [DF]2 [EG]2 [FB]2 | G2 [E=A]2 [DB]2 ([Ec][Fd]) | %4
 [Gc]2 c2 [DB]2 [FB]2 | [EG]2 [Ec]2 [FB]2 (GF) | E2 [B,F]2 G2 [E=A]2 | %7
 [DB]2 [Fc]2 [Fd]2 ([Ee][Fd]) x | [Gc]2 c2 [DB]2 B2 | e2 e2 d2 (ed) | (c2 c2 [EB]2) E2 | %11
 [EA]2 [DA]2 G2 (=AB) | [Gc]2 (B=A) [GB]2 [DB]2 | [Ee]2 [Fe]2 [Fd]2 ([Ge][Fd]) | %14
 [Ec]2 [Fc]2 [FB]2 E2 | [EA]2 [=EG]2 F2 [C_E]2 | ([B,D]2 [CE]2) [DF]4 | E6 |] %18
V:2
 x2 | x6 D2 | x8 | x8 | x2 (FE) x4 | x6 D2 | E2 G2 x4 | x9 | x2 (FE) x B2 x | G8 | E4- x4 | %11
 x4 G2 G2 | x2 ^F2 x4 | x8 | x6 E2 | x4 F2 x2 | x8 | E6 |] %18
V:3
 [E,B,]2 | [E,G,]2 [A,,A,]2 [B,,F,]2 (B,A,) | [C,G,]2 [B,,B,]2 [E,B,]2 [D,B,]2 | %3
 [E,B,]2 [C,C]2 [G,B,]2 [F,B,]2 | [E,B,]2 [F,=A,]2 [B,,B,]2 [D,B,]2 | %5
 [E,B,]2 [C,A,]2 (A,F,) (B,A,) | [C,G,]2 [D,B,]2 [E,B,]2 [C,C]2 | [G,B,]2 [F,=A,]2 (z B,2) x2 | %8
 [E,B,]2 [F,=A,]2 B,2 [B,,B,]2 | [C,C-E]2 [E,C-E]2 [G,CD]2 (ED) | %10
 ([A,,B,C]2 [C,A,C]2 [E,G,B,]2) [G,B,]2 | [F,C]2 [B,,B,]2 B,2 ([C,E][B,,D]) | %12
 [=B,,C]2 [D,C]2 [G,=B,]2 [F,A,B,]2 | [E,G,E]2 [C,G,E]2 [B,,B,D]2 (ED) | %14
 z [A,C]2 [D,A,B,]2 [E,G,]2 x | [C,A,]2 [C,B,]2 [F,A,]2 [A,,G,]2 | (F,2 G,2) [B,,A,]4 | [E,G,]6 |] %18
V:4
 x2 | x6 B,,2 | x8 | x8 | x8 | x4 D,2 B,,2 | x8 | x4 (B,2 =A,) (G,F,) | x4 B,2 x2 | x6 [G,,B,]2 | %10
 x8 | x4 (E,D,) x2 | x8 | x6 [G,,=B,]2 | ([C,C]2 B,) (F, E,) x3 | x8 | B,,4 x4 | x6 |] %18

